X: 14
T:Irish Vauxhall. JB.14
M:2/4
L:1/8
Q:200
S:James Biggins MS, Leeds, 1779.
R:Misc.
O:England
A:Yorkshire
Z:vmp.Nick Barber & Chris Partington
K:D
d2f/-e/.d/.c/|dA2d|efga|fd2e|fgab|efga|de/f/ gf|{f}e4|!
|a2b/-a/.g/.f/|ge2f|g2a/g/f/e/|fd2g|f/-g/a e/-f/g|f/-g/a e/-f/g|fdAc|d2D
2|]
